X: 10616
T: Dowd's Favourite
R: reel
M: 4/4
K: Gdorian
DGGA BGAF|DFFD CFAF|DGGA ~B3d|cAfc AGGF|
DGGA BGAF|DFFD CFAF|DGGA ~B3d|1 cAfc AGGF:|2 cAfc AGGA||
B2dB FBdB|DBdB cAFA|B2dB FBdB|~c2Ac BGGA|
B2dB FBdB|DBdB cAFA|GBAc Bdge|1 fdcA BGGA:|2 fdcA BGBd||
gd~d2 gbag|fc~c2 fgaf|gd~d2 gbag|fdcA BGBd|
gd~d2 gbag|fc~c2 fga G|~B2BA Bdge|1 fdcA BGBd:|2 fdcA dBAF||

